X: 1134
T: Dawning Of The Day (note Correction), The
M: 2/4
L: 1/8
R: polka
K: Dmaj
D2E2F4F4F4|E2F2A4A4B4|A2F2D4E4D4|D2D8|A4B6A2B4|d4F6E2D4|F4G2A4F6|d4F4E8|
F2A2B6A2B4|d4F6E2D4|F4G2A4F6|d4F4E8|D2E2F4F4F4|E2F2A4A4B4|A2F2D4E4D4|D2D12
